storage/app/icons/tabler/filled/calendar-event.svg

<!--
unicode: "100b9"
version: "3.23"
-->
<svg
  xmlns="http://www.w3.org/2000/svg"
  width="24"
  height="24"
  viewBox="0 0 24 24"
  fill="currentColor"
>
  <path d="M16 2a1 1 0 0 1 .993 .883l.007 .117v1h1a3 3 0 0 1 2.995 2.824l.005 .176v12a3 3 0 0 1 -2.824 2.995l-.176 .005h-12a3 3 0 0 1 -2.995 -2.824l-.005 -.176v-12a3 3 0 0 1 2.824 -2.995l.176 -.005h1v-1a1 1 0 0 1 1.993 -.117l.007 .117v1h6v-1a1 1 0 0 1 1 -1m3 8h-14v8.625c0 .705 .386 1.286 .883 1.366l.117 .009h12c.513 0 .936 -.53 .993 -1.215l.007 -.16zm-9 4a1 1 0 0 1 1 1v2a1 1 0 0 1 -1 1h-2a1 1 0 0 1 -1 -1v-2a1 1 0 0 1 1 -1z" />
</svg>

<svg xmlns="http://www.w3.org/2000/svg" width="24" height="24" fill="currentColor" viewBox="0 0 24 24"><path d="M16 2a1 1 0 0 1 .993.883L17 3v1h1a3 3 0 0 1 2.995 2.824L21 7v12a3 3 0 0 1-2.824 2.995L18 22H6a3 3 0 0 1-2.995-2.824L3 19V7a3 3 0 0 1 2.824-2.995L6 4h1V3a1 1 0 0 1 1.993-.117L9 3v1h6V3a1 1 0 0 1 1-1m3 8H5v8.625c0 .705.386 1.286.883 1.366L6 20h12c.513 0 .936-.53.993-1.215l.007-.16zm-9 4a1 1 0 0 1 1 1v2a1 1 0 0 1-1 1H8a1 1 0 0 1-1-1v-2a1 1 0 0 1 1-1z"/></svg>
